T: Trooper, The
M: 6/8
L: 1/8
K: Gmaj
|: d | e/f/ge dBA BEF G/F/GA | BAB def gfg agf | ~|: d | e2 e ede f/g/ag fed | eff efg a2 a f/g/af | ~
